X: 1
T: The Hatchlings (variations)
R: jig
M: 6/8
L: 1/8
K: Edor
|E/F/GA Bgf|eEF G2F|E/F/GA BGB|cAc d2F|
E/F/GA B2A|Bgf efg|B3 AFG| AGF E2 D|
|E/F/GA Bgf|eEF G2F|E/F/GA B3-|Bcd DGF|
E/F/GA B2A|Bgf efg|B3 AFG| AGF E2 f||

